site/static/docs/images/icons/maintenance-windows.svg

<svg fill="none" height="26" viewBox="0 0 26 26" width="26" xmlns="http://www.w3.org/2000/svg"><g fill="#0075ff"><circle cx="13" cy="13" opacity=".15" r="13"/><path clip-rule="evenodd" d="m10.4326 7.30426c-.002.0012-.0042.00267-.0067.00444-1.16586.8147-1.9259 2.16445-1.9259 3.6916 0 1.5978.83215 3.0017 2.0902 3.8012.5176.3289.9284.9233.9014 1.6406l-.0003.0084-.1631 3.3364c-.0203.4137-.372.7327-.7858.7124-.4137-.0202-.73267-.372-.71245-.7857l.1628-3.3305c.00201-.0842-.04942-.2154-.20704-.3156-1.67293-1.0631-2.78571-2.935-2.78571-5.0672 0-2.03768 1.01648-3.83785 2.56666-4.92113.54914-.38376 1.19284-.34681 1.67304-.03928.4619.29578.7603.82708.7603 1.42323v2.81908c0 .0828.041.1603.1095.2068l.75.5093c.0848.0576.1962.0576.2809 0l.75-.5093c.0686-.0465.1096-.124.1096-.2068v-2.81908c0-.59615.2984-1.12745.7603-1.42323.4802-.30753 1.1239-.34448 1.673.03928 1.5502 1.08328 2.5667 2.88345 2.5667 4.92113 0 2.1322-1.1128 4.0041-2.7857 5.0672-.1576.1002-.2091.2314-.207.3156l.1627 3.3305c.0203.4137-.2987.7655-.7124.7857-.4138.0203-.7655-.2987-.7858-.7124l-.1634-3.3448c-.027-.7173.3838-1.3117.9014-1.6406 1.2581-.7995 2.0902-2.2034 2.0902-3.8012 0-1.52715-.76-2.8769-1.9259-3.6916-.0025-.00177-.0047-.00324-.0067-.00444-.024.01648-.0674.06721-.0674.15886v2.81908c0 .5798-.2872 1.1219-.7668 1.4477l-.75.5093c-.5935.4031-1.3729.4031-1.9664 0l-.75-.5093c-.4796-.3258-.7668-.8679-.7668-1.4477v-2.81908c0-.09165-.0434-.14238-.0674-.15886zm.0102-.00528c.0005-.00014 0 .00002 0 0z" fill-rule="evenodd"/></g></svg>

<svg width="26" height="26" viewBox="0 0 26 26" fill="none" xmlns="http://www.w3.org/2000/svg">
<circle opacity="0.15" cx="13" cy="13" r="13" fill="#0075ff"/>
<path fill-rule="evenodd" clip-rule="evenodd" d="M10.4326 7.30426C10.4306 7.30546 10.4284 7.30693 10.4259 7.3087C9.26004 8.1234 8.5 9.47315 8.5 11.0003C8.5 12.5981 9.33215 14.002 10.5902 14.8015C11.1078 15.1304 11.5186 15.7248 11.4916 16.4421L11.4913 16.4505L11.3282 19.7869C11.3079 20.2006 10.9562 20.5196 10.5424 20.4993C10.1287 20.4791 9.80973 20.1273 9.82995 19.7136L9.99275 16.3831C9.99476 16.2989 9.94333 16.1677 9.78571 16.0675C8.11278 15.0044 7 13.1325 7 11.0003C7 8.96262 8.01648 7.16245 9.56666 6.07917C10.1158 5.69541 10.7595 5.73236 11.2397 6.03989C11.7016 6.33567 12 6.86697 12 7.46312V10.2822C12 10.365 12.041 10.4425 12.1095 10.489L12.8595 10.9983C12.9443 11.0559 13.0557 11.0559 13.1404 10.9983L13.8904 10.489C13.959 10.4425 14 10.365 14 10.2822V7.46312C14 6.86697 14.2984 6.33567 14.7603 6.03989C15.2405 5.73236 15.8842 5.69541 16.4333 6.07917C17.9835 7.16245 19 8.96262 19 11.0003C19 13.1325 17.8872 15.0044 16.2143 16.0675C16.0567 16.1677 16.0052 16.2989 16.0073 16.3831L16.17 19.7136C16.1903 20.1273 15.8713 20.4791 15.4576 20.4993C15.0438 20.5196 14.6921 20.2006 14.6718 19.7869L14.5084 16.4421C14.4814 15.7248 14.8922 15.1304 15.4098 14.8015C16.6679 14.002 17.5 12.5981 17.5 11.0003C17.5 9.47315 16.74 8.1234 15.5741 7.3087C15.5716 7.30693 15.5694 7.30546 15.5674 7.30426C15.5434 7.32074 15.5 7.37147 15.5 7.46312V10.2822C15.5 10.862 15.2128 11.4041 14.7332 11.7299L13.9832 12.2392C13.3897 12.6423 12.6103 12.6423 12.0168 12.2392L11.2668 11.7299C10.7872 11.4041 10.5 10.862 10.5 10.2822V7.46312C10.5 7.37147 10.4566 7.32074 10.4326 7.30426ZM10.4428 7.29898C10.4433 7.29884 10.4428 7.299 10.4428 7.29898V7.29898Z" fill="#0075ff"/>
</svg>
